X: 1
T: Morfa Rhuddlan
M: 3/4
L: 1/8
R: waltz
K: Gmin
D2 | G2G2Bd | c2c2B2 | A2ABAG | d2D2D2 |
G2GABd | c2edcB | A2G2^F2 |1 G4 :|2 G6 ||
|: d2defd | c2cdec | B2B2A2 | A2B4 |
d2defd | c2cdec | BedcBA | A2B4 |
d2BcdB | c2ABcA | B2GBAG | ^F2D2D2 |
G2GABd | c2edcB | A2G2^F2 |1 G6 :|2 G4 ||
